!!!COM: Copland, Aaron
!!!OTL: Statements for Orchestra
!!!OMV: V: Jingo
!!!example: 696
!!!work: Cop-12
**kern	**dynam	**kern	**dynam	**kern	**dynam	**kern	**dynam	**kern	**dynam	**kern	**dynam	**kern	**dynam	**kern	**dynam	**kern	**dynam	**kern	**kern	**dynam	**kern	**dynam	**kern	**kern	**kern	**dynam
*part15	*part15	*part14	*part14	*part13	*part13	*part12	*part12	*part11	*part11	*part10	*part10	*part9	*part9	*part8	*part8	*part7	*part7	*part6	*part5	*part5	*part4	*part4	*part3	*part2	*part1	*part1
*staff15	*	*staff14	*	*staff13	*	*staff12	*	*staff11	*	*staff10	*	*staff9	*	*staff8	*	*staff7	*	*staff6	*staff5	*	*staff4	*	*staff3	*staff2	*staff1	*
*I"Contrabass	*	*I"Violoncello	*	*I"Viola	*	*I"Violin I	*	*I"Cymbals	*	*I"Snare Drum	*	*I"Horn in F	*	*I"Horn in F	*	*I"Bassoon	*	*I"Bass Clarinet in Bb	*I"Clarinet in Eb	*	*I"Clarinet in Bb	*	*I"Oboe	*I"Flute	*I"Piccolo	*
*I'Cb.	*	*I'Vc.	*	*I'Vla.	*	*I'Vln. I	*	*I'Cym.	*	*I'S. D.	*	*I'Hn.	*	*I'Hn.	*	*I'Bsn.	*	*I'B. Cl.	*I'Eb Cl.	*	*I'Cl.	*	*I'Ob.	*I'Fl.	*I'Picc.	*
*clefF4	*	*clefF4	*	*clefC3	*	*clefG2	*	*clefpercussion0	*	*clefpercussion0	*	*clefG2	*	*clefG2	*	*clefF4	*	*clefF4	*clefG2	*	*clefG2	*	*clefG2	*clefG2	*clefG2	*
*k[]	*	*k[]	*	*k[]	*	*k[]	*	*	*	*	*	*k[]	*	*k[]	*	*k[]	*	*k[]	*k[]	*	*k[]	*	*k[]	*k[]	*k[]	*
*	*	*	*	*	*	*	*	*	*	*	*	*	*	*	*	*	*	*	*	*	*	*	*	*	*	*
*M4/4	*	*M4/4	*	*M4/4	*	*M4/4	*	*M4/4	*	*M4/4	*	*M4/4	*	*M4/4	*	*M4/4	*	*M4/4	*M4/4	*	*M4/4	*	*M4/4	*M4/4	*M4/4	*
*MM121	*	*MM121	*	*MM121	*	*MM121	*	*MM121	*	*MM121	*	*MM121	*	*MM121	*	*MM121	*	*MM121	*MM121	*	*MM121	*	*MM121	*MM121	*MM121	*
=32	=32	=32	=32	=32	=32	=32	=32	=32	=32	=32	=32	=32	=32	=32	=32	=32	=32	=32	=32	=32	=32	=32	=32	=32	=32	=32
1r	.	1r	.	2d-X~	pp	(2aa-X	p	[4x	p	4r	.	1r	.	1r	.	1r	.	4D-X'~	4r	.	4r	.	4aa-X'	1r	(2aaa-X	p
.	.	.	.	.	.	.	.	4r	.	4x'	pp	.	.	.	.	.	.	4r	4g-X'	p	4a-X'	p	4r	.	.	.
.	.	.	.	4r	.	2ff	.	2r	.	4x'	.	.	.	.	.	.	.	4r	4g-'	.	4a-'	.	2r	.	2fff	.
.	.	.	.	[4A-X~	.	.	.	.	.	4r	.	.	.	.	.	.	.	4AA-X'~	4r	.	4r	.	.	.	.	.
=33	=33	=33	=33	=33	=33	=33	=33	=33	=33	=33	=33	=33	=33	=33	=33	=33	=33	=33	=33	=33	=33	=33	=33	=33	=33	=33
1r	.	1r	.	4A-]	.	2ee-X	.	2r	.	4x'	.	1r	.	1r	.	1r	.	2r	4g-X'	.	4a-X'	.	1r	1r	2eee-X	.
.	.	.	.	4r	.	.	.	.	.	4x'	.	.	.	.	.	.	.	.	4g-'	.	4a-'	.	.	.	.	.
.	.	.	.	2d-X~	.	2dd-X	.	[4x	.	4r	.	.	.	.	.	.	.	4D-X'~	4r	.	4r	.	.	.	2ddd-X	.
.	.	.	.	.	.	.	.	4r	.	4x'	.	.	.	.	.	.	.	4r	4g-'	.	4a-'	.	.	.	.	.
=34	=34	=34	=34	=34	=34	=34	=34	=34	=34	=34	=34	=34	=34	=34	=34	=34	=34	=34	=34	=34	=34	=34	=34	=34	=34	=34
1r	.	1r	.	4r	.	2ee-X	.	1r	.	4x'	.	1r	.	1r	.	1r	.	4r	4g-X'	.	4a-X'	.	1r	1r	2eee-X	.
.	.	.	.	2A-X~	.	.	.	.	.	4r	.	.	.	.	.	.	.	4AA-X'~	4r	.	4r	.	.	.	.	.
.	.	.	.	.	.	4dd-X	.	.	.	4x'	.	.	.	.	.	.	.	2r	4g-'	.	4a-'	.	.	.	4ddd-X	.
.	.	.	.	4r	.	[4b-X	.	.	.	4x'	.	.	.	.	.	.	.	.	4g-'	.	4a-'	.	.	.	[4bb-X	.
=35	=35	=35	=35	=35	=35	=35	=35	=35	=35	=35	=35	=35	=35	=35	=35	=35	=35	=35	=35	=35	=35	=35	=35	=35	=35	=35
1r	.	1r	.	2d-X~	.	4b-]	.	[4x	.	4r	.	1r	.	1r	.	1r	.	4D-X'~	4r	.	4r	.	1r	1r	4bb-]	.
.	.	.	.	.	.	4cc	.	4r	.	4x'	.	.	.	.	.	.	.	4r	4g-X'	.	4a-X'	.	.	.	4ccc	.
.	.	.	.	4r	.	2dd-X)	.	2r	.	4x'	.	.	.	.	.	.	.	4r	4g-'	.	4a-'	.	.	.	2ddd-X)	.
.	.	.	.	[4A-X~	.	.	.	.	.	4r	.	.	.	.	.	.	.	4AA-X'~	4r	.	4r	.	.	.	.	.
=36	=36	=36	=36	=36	=36	=36	=36	=36	=36	=36	=36	=36	=36	=36	=36	=36	=36	=36	=36	=36	=36	=36	=36	=36	=36	=36
1r	.	2r	.	4A-]	.	([2dd-X	.	2r	.	4x'	.	2r	.	2r	.	2r	.	2r	4g-X'	.	4a-X'	.	1r	[2ddd-X	([2ddd-X	.
.	.	.	.	4r	.	.	.	.	.	4x'	.	.	.	.	.	.	.	.	4g-'	.	4a-'	.	.	.	.	.
!	!	!LO:TX:t=pizz.	!	!	!	!	!	!	!	!	!	!	!	!	!	!	!	!	!	!	!	!	!	!	!	!
.	.	4CC#X' 4C#X	p	2r	.	4dd-]	.	[4x	.	4r	.	4r	.	4r	.	4C#X'	p	4D-X'~	4r	.	4r	.	.	4ddd-]	4ddd-]	.
.	.	4r	.	.	.	[4ee-X	.	4r	.	4r	.	4E' 4c#X	p	4A'	p	4r	.	4r	4g-'	.	4a-'	.	.	[4eee-X	[4eee-X	.
=37	=37	=37	=37	=37	=37	=37	=37	=37	=37	=37	=37	=37	=37	=37	=37	=37	=37	=37	=37	=37	=37	=37	=37	=37	=37	=37
!LO:TX:t=pizz.	!	!	!	!	!	!	!	!	!	!	!	!	!	!	!	!	!	!	!	!	!	!	!	!	!	!
4AAA 4AA	p	2r	.	1r	.	4ee-]	.	1r	.	1r	.	4r	.	4r	.	4AA'	.	2r	4g-X'	.	4a-X'	.	1r	4eee-]	4eee-]	.
4r	.	.	.	.	.	2dd-X	.	.	.	.	.	4E' 4c#X	.	4A'	.	4r	.	.	4r	.	4r	.	.	2ddd-X	2ddd-X	.
2r	.	4CC#X' 4C#X	.	.	.	.	.	.	.	.	.	4r	.	4r	.	4C#X'	.	4AA-X'~	4r	.	4r	.	.	.	.	.
.	.	4r	.	.	.	4ee-X	.	.	.	.	.	4E' 4c#	.	4A'	.	4r	.	4r	4g-'	.	4a-'	.	.	4eee-X	4eee-X	.
=38	=38	=38	=38	=38	=38	=38	=38	=38	=38	=38	=38	=38	=38	=38	=38	=38	=38	=38	=38	=38	=38	=38	=38	=38	=38	=38
4AAA 4AA	.	2r	.	1r	.	2ff	.	1r	.	1r	.	4r	.	4r	.	4AA'	.	4r	2r	.	2r	.	1r	2fff	2fff	.
4r	.	.	.	.	.	.	.	.	.	.	.	4E' 4c#X	.	4A'	.	4r	.	4D-X'~	.	.	.	.	.	.	.	.
2r	.	4CC#X' 4C#X	.	.	.	2ee-X)	.	.	.	.	.	4r	.	4r	.	4C#X'	.	2r	4g-X'	.	4a-X'	.	.	2eee-X	2eee-X)	.
.	.	4r	.	.	.	.	.	.	.	.	.	4E' 4c#	.	4A'	.	4r	.	.	4r	.	4r	.	.	.	.	.
=	=	=	=	=	=	=	=	=	=	=	=	=	=	=	=	=	=	=	=	=	=	=	=	=	=	=
*-	*-	*-	*-	*-	*-	*-	*-	*-	*-	*-	*-	*-	*-	*-	*-	*-	*-	*-	*-	*-	*-	*-	*-	*-	*-	*-
!!!system-decoration: [(s1,s2,s3,s4,s5,s6,s7)][(s8,s9)][(s10,s11)][(s12,s13,s14,s15)]
!!!CDT: 1900/11/14-1990/12/02
!!!CBL: Brooklyn, United States
!!!CDL: North Tarrytown, United States
!!!CNT: American
!!!AGN: Orchestral; Programmatic
!!!MCN: Ormandy, Eugene
!!!MDT: 1936/01/09
!!!MGN: Minneapolis Symphony Orchestra
!!!MLC: Minneapolis, Minnesota, United States of America
!!!MPD: 1936
!!!MPN:
!!!ODT: 1935
!!!PDT: 1947
!!!excerpt-start-measure: 32
!!!excerpt-end-measure: 38
!!!excerpt-start-time: 0:27
!!!excerpt-end-time: 0:33
!!!EEV: 2020/01/22
!!!ONB: Converted from MusicXML on 2020/01/22
